packages/dnb-ui-lib/assets/icons/information_circled_medium.svg

<svg width="24" height="24" viewBox="0 0 24 24" fill="none" xmlns="http://www.w3.org/2000/svg">
<path fill-rule="evenodd" clip-rule="evenodd" d="M1.5 12C1.5 6.20101 6.20101 1.5 12 1.5C17.799 1.5 22.5 6.20101 22.5 12C22.5 17.799 17.799 22.5 12 22.5C6.20101 22.5 1.5 17.799 1.5 12ZM12 0C5.37258 0 0 5.37258 0 12C0 18.6274 5.37258 24 12 24C18.6274 24 24 18.6274 24 12C24 5.37258 18.6274 0 12 0ZM10.5 9.75C10.0858 9.75 9.75 10.0858 9.75 10.5C9.75 10.9142 10.0858 11.25 10.5 11.25H11.25V15C11.25 16.2426 12.2574 17.25 13.5 17.25H14.25C14.6642 17.25 15 16.9142 15 16.5C15 16.0858 14.6642 15.75 14.25 15.75H13.5C13.0858 15.75 12.75 15.4142 12.75 15V11.25C12.75 10.4216 12.0784 9.75 11.25 9.75H10.5ZM11.5 8C12.0523 8 12.5 7.55228 12.5 7C12.5 6.44772 12.0523 6 11.5 6C10.9477 6 10.5 6.44772 10.5 7C10.5 7.55228 10.9477 8 11.5 8Z" fill="black"/>
</svg>

<svg width="24" height="24" viewBox="0 0 24 24" fill="none" xmlns="http://www.w3.org/2000/svg"><path fill-rule="evenodd" clip-rule="evenodd" d="M1.5 12C1.5 6.201 6.201 1.5 12 1.5S22.5 6.201 22.5 12 17.799 22.5 12 22.5 1.5 17.799 1.5 12zM12 0C5.373 0 0 5.373 0 12s5.373 12 12 12 12-5.373 12-12S18.627 0 12 0zm-1.5 9.75a.75.75 0 000 1.5h.75V15a2.25 2.25 0 002.25 2.25h.75a.75.75 0 000-1.5h-.75a.75.75 0 01-.75-.75v-3.75a1.5 1.5 0 00-1.5-1.5h-.75zm1-1.75a1 1 0 100-2 1 1 0 000 2z" fill="#000"/></svg>
